X: 813
T: Red Apple Rag
C:Arthur Smith
B: jims roots
M:4/4
L:1/8
Q: 1/4=100
K:G
V:1 
%Q:180
DC|"G"B,CDG EFGA | BdBG- GBAG |"C"EFGB cBcd|e_e=ec- cdcB|
"D"AdBc d^cde|fafd- d2 ef|gbge dBAF|"G"G6:|
|:"G"Bc|d2 eg- gf g2|b_b=bg- gage|"C"cdeg- ge g2|agec- cdcB|
"D"AdBc d^cde | fafd- d2 g2-|gbge dBAF|"G"G6:|
% abcbook-tune_id 6298c279048f2c24c843b7a3


% abcbook-boost 0
% abcbook-tablature 
% abcbook-transpose 
% abcbook-lastupdated 1654178426777
% abcbook-soundfonts 
% abcbook-repeats 1


